common/src/main/resources/icons/expui/run/runWithCoverage.svg

<svg xmlns="http://www.w3.org/2000/svg" width="16" height="16" fill="#9E9D24" data-big="true" viewBox="0 0 24 24"><path d="M13 2.05v2c4.39.54 7.5 4.53 6.96 8.92-.46 3.64-3.32 6.53-6.96 6.96v2c5.5-.55 9.5-5.43 8.95-10.93-.45-4.75-4.22-8.5-8.95-8.97zM5.67 19.74A10 10 0 0 0 11 22v-2a8 8 0 0 1-3.9-1.63zm1.43-14c1.12-.9 2.47-1.48 3.9-1.68v-2c-1.95.19-3.81.94-5.33 2.2zM5.69 7.1 4.26 5.67A9.9 9.9 0 0 0 2.05 11h2c.19-1.42.75-2.77 1.64-3.9M4.06 13h-2c.2 1.96.97 3.81 2.21 5.33l1.42-1.43A8 8 0 0 1 4.06 13M10 16.5l6-4.5-6-4.5z"/></svg>

<!--
  - The MIT License (MIT)
  -
  - Copyright (c) 2015-2024 Elior "Mallowigi" Boukhobza
  -
  - Permission is hereby granted, free of charge, to any person obtaining a copy
  - of this software and associated documentation files (the "Software"), to deal
  - in the Software without restriction, including without limitation the rights
  - to use, copy, modify, merge, publish, distribute, sublicense, and/or sell
  - copies of the Software, and to permit persons to whom the Software is
  - furnished to do so, subject to the following conditions:
  -
  - The above copyright notice and this permission notice shall be included in all
  - copies or substantial portions of the Software.
  -
  - THE SOFTWARE IS PROVIDED "AS IS", WITHOUT WARRANTY OF ANY KIND, EXPRESS OR
  - IMPLIED, INCLUDING BUT NOT LIMITED TO THE WARRANTIES OF MERCHANTABILITY,
  - FITNESS FOR A PARTICULAR PURPOSE AND NONINFRINGEMENT. IN NO EVENT SHALL THE
  - AUTHORS OR COPYRIGHT HOLDERS BE LIABLE FOR ANY CLAIM, DAMAGES OR OTHER
  - LIABILITY, WHETHER IN AN ACTION OF CONTRACT, TORT OR OTHERWISE, ARISING FROM,
  - OUT OF OR IN CONNECTION WITH THE SOFTWARE OR THE USE OR OTHER DEALINGS IN THE
  - SOFTWARE.
  -->


<svg data-big="true" xmlns="http://www.w3.org/2000/svg" version="1.1" width="16px" height="16px" viewBox="0 0 24 24"
     fill="#9E9D24">
  <path
    d="M13,2.05V4.05C17.39,4.59 20.5,8.58 19.96,12.97C19.5,16.61 16.64,19.5 13,19.93V21.93C18.5,21.38 22.5,16.5 21.95,11C21.5,6.25 17.73,2.5 13,2.03V2.05M5.67,19.74C7.18,21 9.04,21.79 11,22V20C9.58,19.82 8.23,19.25 7.1,18.37L5.67,19.74M7.1,5.74C8.22,4.84 9.57,4.26 11,4.06V2.06C9.05,2.25 7.19,3 5.67,4.26L7.1,5.74M5.69,7.1L4.26,5.67C3,7.19 2.25,9.04 2.05,11H4.05C4.24,9.58 4.8,8.23 5.69,7.1M4.06,13H2.06C2.26,14.96 3.03,16.81 4.27,18.33L5.69,16.9C4.81,15.77 4.24,14.42 4.06,13M10,16.5L16,12L10,7.5V16.5Z"/>
</svg>
